X:109
T:Tanseys Favorite
%T:The Treble Jig
S:Lesl Harker <lmh:RCONS.COM> irtrad-l 2001-10-4
M:6/8
K:G
D|:G3 BAB|GBd gdB|AFD cBA|GBd gdB| ~G3 BzB|GBd gdB|AFD cBA|1 BGG G2D:|2 BGG GBd||
|:g2a f2a|gdB GBd|gfe fed|efe e2f| g2a f2a|gdB GBd|AFD cBA|1 BGG GBd:|2 BGF G2D||
|:GBd ~g3|edc BcA|GBd ~g3|faf g2a| bgb afa|gfe fed|ed^c def|gaf gdB:|G6||
